X: 1022
T: Whiskey Before Breakfast
B: jims roots
M:4/4
L:1/8
R: reel
Q: 1/4=100
K:Dmaj
V:1 
|: "D"DEFG A2 AA| ABAG FDEF | "G"G2 BG "D"F2 AF | "A"EDEF GFEF |
"D"DEFG A2 AA | ABAG FDEF | "G"G2 BG "D"F2 AF | "A"EDEF "D"D2 DD :|
|: "D"DFAc d2 cd | efed cB A2 | "Em"e2 ef e2 ef | "A"gfed cABc |
"D"d2 fd "A"c2 ec | "G"BABc "D"dBAF | "G"G2 BG "D"F2 AF | "A"EDEF "D"D2 D2 :|
% abcbook-tune_id 6298c297e9c2e705f9c65e09


% abcbook-boost 0
% abcbook-tablature 
% abcbook-transpose 
% abcbook-lastupdated 1654178456864
% abcbook-soundfonts 
% abcbook-repeats 1


